X: 19428
T: Jackson's
R: jig
M: 6/8
K: Dmajor
DED DdB|AGF FdB|AGF dAF|E3/2E/E GFE|
DED DdB|AGF FdB|AGF BGE|DED D z A,|
DED DdB|AGF dcB|AGF (dA)F|E/E/EE GFE|
DED dcB|AGF dcB|AGF BGE|DED Dag|
fed dA[BG]|efe efg|fed d(AB)|(de)d dBA|
fed dAB|efe efg|a3 gec|d/d/dd d z e|
fed dA[GB]|efe efg|fed d(AB)|(de)d dBA|
fed dAB|efe efg|afd gec|fdB AFE|
D/D/DD DdB|AGF [A,F] z B|AGF dAF|E3/2E/E GFE|
DED dcB|AGF dcB|AGF BGE|DED A,A,/A,/A,|
DED DdB|AGF [FA,] z B|AGF dAF|E3/2E/E GFE|
DED DdB|AGF FdB|AGF BGE|DED Dag|
fed dA[GB]|efe efg|fed d(AB)|(de)d dBA|
fed dAB|efe efg|a2 a gec|dfe d z e|
fed dA[GB]|efe efg|fed d(AB)|(de)d dBA|
fed dAB|efe efg|a2 a gec|dfe d2 z||

